X:1849
T:Trettondedagslåten
C:Pål Olle
R:Marsch
S:Efter Jonny Soling
O:Dalarna
Z:Karin Arén
M:4/4
L:1/16
K:A
Ac|:e2cA a2gf eTfec A>A (3ABc|d2E2 EGBc dfed cBAc|
e2cA a2gf eTfec A>A (3ABc|1d2E2 EGBG A6 Ac:|2 d2E2 EGBG A8 |: 
[K:D]f2ed A2FA G2FG E3D|EFGA Bdce defg b2a2|
f2ed A2FA G2FG E3D|EFGA Bdce d8:|
(:musicend:)
(:music:)
